src/svg/arrow-unsorted.svg

<svg version="1.2" baseProfile="tiny" xmlns="http://www.w3.org/2000/svg" width="24" height="24" viewBox="0 0 24 24"><path d="M18.2 9.3l-6.2-6.3-6.2 6.3c-.2.2-.3.4-.3.7s.1.5.3.7c.2.2.4.3.7.3h11c.3 0 .5-.1.7-.3.2-.2.3-.5.3-.7s-.1-.5-.3-.7zM5.8 14.7l6.2 6.3 6.2-6.3c.2-.2.3-.5.3-.7s-.1-.5-.3-.7c-.2-.2-.4-.3-.7-.3h-11c-.3 0-.5.1-.7.3-.2.2-.3.5-.3.7s.1.5.3.7z"/></svg>

<?xml version="1.0" encoding="iso-8859-1"?>
<!-- Generator: Adobe Illustrator 16.2.1, SVG Export Plug-In . SVG Version: 6.00 Build 0)  -->
<svg version="1.2" baseProfile="tiny" id="Layer_1" xmlns="http://www.w3.org/2000/svg" xmlns:xlink="http://www.w3.org/1999/xlink"
   x="0px" y="0px" width="24px" height="24px" viewBox="0 0 24 24" xml:space="preserve">
<path d="M18.2,9.3L12,3L5.8,9.3C5.6,9.5,5.5,9.7,5.5,10s0.1,0.5,0.3,0.7C6,10.9,6.2,11,6.5,11h11c0.3,0,0.5-0.1,0.7-0.3
	c0.2-0.2,0.3-0.5,0.3-0.7S18.4,9.5,18.2,9.3z"/>
<path d="M5.8,14.7L12,21l6.2-6.3c0.2-0.2,0.3-0.5,0.3-0.7s-0.1-0.5-0.3-0.7C18,13.1,17.8,13,17.5,13h-11c-0.3,0-0.5,0.1-0.7,0.3
	c-0.2,0.2-0.3,0.5-0.3,0.7S5.6,14.5,5.8,14.7z"/>
</svg>
